X:1
T:Title
%%score ( 1 2 ) 3
L:1/8
Q:1/4=98
M:4/4
K:Bb
V:1 treble nm="Grand Piano, Soprano"
V:2 treble 
V:3 bass nm="Choir Pad, The Whispers of Jesus"
V:1
 [DF]>[DF] [_D=E]>[=DF] [DG]>[DA] [DB]>[DG] | [EB]2 [EA]2 [EA]2 z2 | %2
w: By~Edmund~Simon~Lorenz * * * * * * *||
 [Ec]>[Ec] [Ec]>[EB] [EA]2 [EG]>[EA] | [DG]4 [DF]2 z2 | %4
w: ||
 [DF]>[DF] [_D=E]>[=DF] [DG]>[DA] [DB]>[DG] | [EB]2 [EA]2 [EA]2 z2 | %6
w: ||
 [Ge]>[Ge] [Ge]>[Ge] [Fd]2 [DB]>[Fd] | [Ec]4 [DB]2 z2 | z F3- F3- F/ z/ | [EG]B- [GB]>G B2- [GB]2 | %10
w: ||||
 [EA]>[EA] [EA]>[EA] [EG]2 [EA]>[EG] | [DG]4 [DF]2 z2 | [Fd]>[Fd] [Fd]>[Fd] [DB]>[DB] [_Ac]>[Ad] | %13
w: |||
 [Ge]2 [Ge]2 .[Ge]2 z2 | [Fd]>[Fd] [Fd]>[DB] [DF]2 [DB]>[Fd] | [Ec]4 [DB]4- | [DB]4 z4 |] %17
w: ||||
V:2
 x8 | x8 | x8 | x8 | x8 | x8 | x8 | x8 | [B,D]D D>D D2 D2 | z G z2 G2 z2 | x8 | x8 | x8 | x8 | x8 | %15
 x8 | x8 |] %17
V:3
 [B,,B,]>[B,,B,] [B,,B,]>[B,,B,] [B,,B,]>[B,,A,] [B,,G,]>[B,,G,] | [C,F,]2 [C,F,]2 F,2 z2 | %2
 [F,A,]>[F,A,] [F,A,]>[F,B,] [F,C]2 [F,B,]>[F,C] | [B,,B,]4 [B,,B,]2 z2 | %4
 [B,,B,]>[B,,B,] [B,,B,]>[B,,B,] [B,,B,]>[B,,A,] [B,,G,]>[B,,G,] | [C,F,]2 [C,F,]2 F,2 z2 | %6
 [F,A,]>[F,A,] [F,A,]>[F,A,] [F,B,]2 [F,B,]>[F,B,] | [F,A,]4 [B,,B,]2 z2 | %8
 [B,,F,][B,,B,] [B,,B,]>[B,,B,] [B,,B,]2 [B,,B,]2 | [E,B,][E,E] [E,E]>[E,E] [E,E]2 [E,E]2 | %10
 [F,C]>[F,C] [F,C]>[F,C] [F,B,]2 [F,C]>[F,A,] | [B,,B,]4 [B,,B,]2 z2 | B,>B, B,>B, B,>B, B,>B, | %13
 [E,B,]2 [E,B,]2 [E,B,]2 z2 | [F,B,]>[F,B,] [F,B,]>[F,B,] [F,B,]2 [F,B,]>[F,B,] | %15
 [F,A,]4 [B,,B,]4- | [B,,B,]4 z4 |] %17

